src/images/work-with-us.svg

<svg height="103" viewBox="0 0 103 103" width="103" xmlns="http://www.w3.org/2000/svg" xmlns:xlink="http://www.w3.org/1999/xlink"><defs><rect id="a" height="103" rx="2" width="103"/><mask id="b" fill="#fff"><use fill="#fff" fill-rule="evenodd" xlink:href="#a"/></mask><mask id="c" fill="#fff"><path d="m0 .41h50.144v34.053h-50.144z" fill="#fff" fill-rule="evenodd"/></mask><mask id="d" fill="#fff"><path d="m.121.004h19.884v65.884h-19.884z" fill="#fff" fill-rule="evenodd"/></mask></defs><g fill="none" fill-rule="evenodd"><use fill="#e4e9ff" xlink:href="#a"/><g mask="url(#b)"><path d="m27.966 67.016c-2.16 1.255-4.119 1.37-5.535.54l47.242 27.642c1.415.827 3.375.713 5.535-.541 4.291-2.496 7.77-8.561 7.754-13.526l-47.24-27.64c.013 4.964-3.465 11.03-7.756 13.525" fill="#fff"/><path d="m47.242 28.049-47.242-27.639c.009 3.152 1.118 5.37 2.902 6.414l47.242 27.639c-1.785-1.045-2.893-3.263-2.902-6.414" fill="#c7bef8" mask="url(#c)" transform="translate(18 63.382)"/><path d="m18 63.792 47.242 27.639 2.159-1.255-47.242-27.639z" fill="#604dc1"/><path d="m17.72 1.263.122 47.234c.015 4.964-3.463 11.03-7.756 13.525-4.29 2.494-7.791.484-7.805-4.48l-2.161 1.255c.018 6.344 4.491 8.91 9.973 5.723s9.93-10.937 9.912-17.278l-.121-47.238-2.163 1.26z" fill="#8c78f2" mask="url(#d)" transform="translate(65.12 32.634)"/><path d="m35.6 6.258.121 47.235 47.241 27.637-.12-47.233z" fill="#fff"/><path d="m35.6 6.258 47.241 27.64 2.163-1.26-47.242-27.638z" fill="#8c78f2"/><path d="m75.622 35.072-28.274-16.434c-2.917-1.696-6.564.418-6.574 3.809l-.018 6.127a4.421 4.421 0 0 0 2.192 3.833l28.29 16.444c2.923 1.698 6.575-.425 6.575-3.821v-6.137a4.416 4.416 0 0 0 -2.191-3.821" fill="#ffcc4b"/><path d="m38.63 35.754 16.22 9.547v-2.008l-16.214-9.542zm24.031 14.106 16.436 9.674.007-2.004-16.443-9.677zm-24.031-10.109 16.22 9.547v-2.008l-16.214-9.544zm24.031 14.104 16.436 9.675.007-2.005-16.444-9.675zm-24.031-10.109 16.22 9.547v-2.007l-16.214-9.541zm24.031 14.106 16.436 9.673.007-2.003-16.443-9.676zm-24.031-10.109 16.22 9.547v-2.008l-16.214-9.543zm24.031 14.107 16.436 9.672.007-2.004-16.444-9.678zm-24.031-10.111 16.22 9.546v-2.005l-16.214-9.542zm24.031 14.105 16.436 9.674.007-2.004-16.443-9.676zm-24.031-10.108 16.22 9.546v-2.008l-16.214-9.541zm24.031 14.106 16.436 9.673.007-2.005-16.443-9.677zm-24.031-10.11 16.22 9.546v-2.009l-16.214-9.541zm24.031 14.105 16.436 9.673.007-2.004-16.444-9.676z" fill="#d6cfff"/></g></g></svg>

<svg xmlns="http://www.w3.org/2000/svg" xmlns:xlink="http://www.w3.org/1999/xlink" width="103" height="103" viewBox="0 0 103 103">
    <defs>
        <rect id="a" width="103" height="103" rx="2"/>
        <path id="c" d="M0 .41h50.144v34.053H0z"/>
        <path id="e" d="M.121.004h19.884v65.884H.121z"/>
    </defs>
    <g fill="none" fill-rule="evenodd">
        <mask id="b" fill="#fff">
            <use xlink:href="#a"/>
        </mask>
        <use fill="#E4E9FF" xlink:href="#a"/>
        <g mask="url(#b)">
            <path fill="#FFF" d="M27.966 67.016c-2.16 1.255-4.119 1.37-5.535.54l47.242 27.642c1.415.827 3.375.713 5.535-.541 4.291-2.496 7.77-8.561 7.754-13.526l-47.24-27.64c.013 4.964-3.465 11.03-7.756 13.525"/>
            <g transform="translate(18 63.382)">
                <mask id="d" fill="#fff">
                    <use xlink:href="#c"/>
                </mask>
                <path fill="#C7BEF8" d="M47.242 28.049L0 .41C.009 3.562 1.118 5.78 2.902 6.824l47.242 27.639c-1.785-1.045-2.893-3.263-2.902-6.414" mask="url(#d)"/>
            </g>
            <path fill="#604DC1" d="M18 63.792l47.242 27.639 2.159-1.255-47.242-27.639z"/>
            <g transform="translate(65.12 32.634)">
                <mask id="f" fill="#fff">
                    <use xlink:href="#e"/>
                </mask>
                <path fill="#8C78F2" d="M17.72 1.263l.122 47.234c.015 4.964-3.463 11.03-7.756 13.525-4.29 2.494-7.791.484-7.805-4.48L.12 58.797c.018 6.344 4.491 8.91 9.973 5.723 5.482-3.187 9.93-10.937 9.912-17.278L19.884.004l-2.163 1.26z" mask="url(#f)"/>
            </g>
            <path fill="#FFF" d="M35.6 6.258l.121 47.235L82.962 81.13l-.12-47.233z"/>
            <path fill="#8C78F2" d="M35.6 6.258l47.241 27.64 2.163-1.26L37.762 5z"/>
            <path fill="#FFCC4B" d="M75.622 35.072L47.348 18.638c-2.917-1.696-6.564.418-6.574 3.809l-.018 6.127a4.421 4.421 0 0 0 2.192 3.833l28.29 16.444c2.923 1.698 6.575-.425 6.575-3.821v-6.137a4.416 4.416 0 0 0-2.191-3.821"/>
            <path fill="#D6CFFF" d="M38.63 35.754l16.22 9.547v-2.008l-16.214-9.542zM62.661 49.86l16.436 9.674.007-2.004-16.443-9.677zM38.63 39.751l16.22 9.547V47.29l-16.214-9.544zM62.661 53.855l16.436 9.675.007-2.005L62.66 51.85zM38.63 43.746l16.22 9.547v-2.007l-16.214-9.541zM62.661 57.852l16.436 9.673.007-2.003-16.443-9.676zM38.63 47.743l16.22 9.547v-2.008l-16.214-9.543zM62.661 61.85l16.436 9.672.007-2.004L62.66 59.84zM38.63 51.739l16.22 9.546V59.28l-16.214-9.542zM62.661 65.844l16.436 9.674.007-2.004-16.443-9.676zM38.63 55.736l16.22 9.546v-2.008l-16.214-9.541zM62.661 69.842l16.436 9.673.007-2.005-16.443-9.677zM38.63 59.732l16.22 9.546v-2.009l-16.214-9.541zM62.661 73.837l16.436 9.673.007-2.004L62.66 71.83z"/>
        </g>
    </g>
</svg>
